flaticon/gastronomy/pot-2.svg

<svg xmlns="http://www.w3.org/2000/svg" width="32" height="32" viewBox="0 0 24 24">
    <path d="M 22.738281 9.222656 L 21.484375 9.222656 C 21.503906 8.976562 21.578125 8.742188 21.703125 8.53125 L 22.390625 7.382812 C 22.523438 7.15625 22.527344 6.871094 22.398438 6.644531 C 22.3125 6.492188 22.175781 6.382812 22.015625 6.324219 C 22.007812 6.210938 21.980469 6.101562 21.917969 6 L 21.863281 5.925781 C 21.371094 5.398438 20.136719 4.167969 19.367188 4.167969 L 16.421875 4.167969 L 16.421875 3.746094 C 16.421875 2.355469 15.289062 1.21875 13.894531 1.21875 L 9.683594 1.21875 C 8.292969 1.21875 7.15625 2.355469 7.15625 3.746094 L 7.15625 4.167969 L 4.632812 4.167969 C 3.863281 4.167969 2.628906 5.398438 2.136719 5.925781 L 2.082031 6 C 2.023438 6.101562 1.992188 6.210938 1.984375 6.324219 C 1.828125 6.382812 1.6875 6.492188 1.601562 6.644531 C 1.472656 6.871094 1.476562 7.15625 1.613281 7.382812 L 2.296875 8.53125 C 2.421875 8.742188 2.496094 8.976562 2.515625 9.222656 L 1.261719 9.222656 C 0.566406 9.222656 0 9.789062 0 10.484375 C 0 11.179688 0.566406 11.746094 1.261719 11.746094 L 2.527344 11.746094 L 2.527344 20.167969 C 2.527344 20.277344 2.535156 20.382812 2.546875 20.484375 C 2.539062 20.519531 2.527344 20.554688 2.527344 20.589844 C 2.527344 20.683594 2.5625 20.765625 2.617188 20.835938 C 2.910156 21.953125 3.921875 22.78125 5.125 22.78125 L 18.875 22.78125 C 20.308594 22.78125 21.472656 21.609375 21.472656 20.167969 L 21.472656 11.746094 L 22.738281 11.746094 C 23.433594 11.746094 24 11.179688 24 10.484375 C 24 9.789062 23.433594 9.222656 22.738281 9.222656 Z M 19.367188 5.011719 C 19.605469 5.011719 20.34375 5.582031 21.027344 6.273438 L 14.703125 6.273438 C 14.722656 6.136719 14.738281 5.996094 14.738281 5.851562 C 14.738281 5.558594 14.691406 5.277344 14.613281 5.011719 Z M 13.679688 6.765625 C 13.648438 6.824219 13.617188 6.882812 13.582031 6.941406 C 13.554688 6.988281 13.523438 7.035156 13.492188 7.078125 C 13.449219 7.140625 13.394531 7.203125 13.34375 7.257812 C 13.316406 7.292969 13.289062 7.328125 13.257812 7.355469 C 13.175781 7.4375 13.085938 7.511719 12.988281 7.578125 C 12.953125 7.601562 12.914062 7.621094 12.878906 7.644531 C 12.808594 7.6875 12.738281 7.726562 12.664062 7.761719 C 12.621094 7.78125 12.578125 7.796875 12.53125 7.816406 C 12.457031 7.84375 12.378906 7.867188 12.296875 7.886719 C 12.253906 7.898438 12.214844 7.910156 12.171875 7.917969 C 12.046875 7.941406 11.921875 7.957031 11.789062 7.957031 C 11.660156 7.957031 11.53125 7.941406 11.410156 7.917969 C 11.367188 7.910156 11.324219 7.898438 11.28125 7.890625 C 11.203125 7.867188 11.125 7.84375 11.046875 7.816406 C 11.003906 7.800781 10.957031 7.78125 10.914062 7.761719 C 10.839844 7.726562 10.769531 7.6875 10.699219 7.644531 C 10.664062 7.625 10.625 7.605469 10.59375 7.582031 C 10.496094 7.511719 10.40625 7.4375 10.324219 7.359375 C 10.292969 7.328125 10.265625 7.292969 10.234375 7.261719 C 10.183594 7.203125 10.132812 7.144531 10.085938 7.082031 C 10.054688 7.035156 10.027344 6.988281 10 6.941406 C 9.964844 6.886719 9.929688 6.828125 9.902344 6.765625 C 9.875 6.710938 9.851562 6.660156 9.828125 6.605469 C 9.738281 6.367188 9.683594 6.117188 9.683594 5.851562 C 9.683594 5.441406 9.808594 5.058594 10.015625 4.730469 C 10.035156 4.695312 10.058594 4.664062 10.082031 4.628906 C 10.140625 4.550781 10.203125 4.476562 10.269531 4.402344 C 10.289062 4.382812 10.308594 4.359375 10.332031 4.339844 C 10.40625 4.269531 10.484375 4.203125 10.566406 4.144531 C 10.601562 4.121094 10.636719 4.097656 10.671875 4.074219 C 10.75 4.027344 10.832031 3.980469 10.914062 3.941406 C 10.941406 3.929688 10.96875 3.917969 10.996094 3.90625 C 11.097656 3.863281 11.207031 3.832031 11.316406 3.804688 C 11.351562 3.796875 11.386719 3.789062 11.421875 3.785156 C 11.539062 3.761719 11.664062 3.746094 11.789062 3.746094 C 11.917969 3.746094 12.039062 3.761719 12.160156 3.785156 C 12.195312 3.789062 12.230469 3.796875 12.265625 3.804688 C 12.375 3.832031 12.484375 3.863281 12.585938 3.90625 C 12.613281 3.917969 12.640625 3.929688 12.667969 3.941406 C 12.75 3.980469 12.832031 4.027344 12.90625 4.074219 C 12.945312 4.097656 12.980469 4.121094 13.011719 4.144531 C 13.097656 4.203125 13.175781 4.269531 13.25 4.339844 C 13.269531 4.359375 13.292969 4.382812 13.3125 4.402344 C 13.378906 4.472656 13.441406 4.550781 13.496094 4.628906 C 13.523438 4.664062 13.542969 4.695312 13.566406 4.730469 C 13.769531 5.058594 13.894531 5.441406 13.894531 5.851562 C 13.894531 6.117188 13.839844 6.367188 13.75 6.601562 C 13.730469 6.660156 13.703125 6.710938 13.679688 6.765625 Z M 8 3.746094 C 8 2.816406 8.753906 2.0625 9.683594 2.0625 L 13.894531 2.0625 C 14.824219 2.0625 15.578125 2.816406 15.578125 3.746094 L 15.578125 4.167969 L 14.207031 4.167969 C 14.199219 4.160156 14.195312 4.15625 14.191406 4.148438 C 14.132812 4.066406 14.070312 3.988281 14.003906 3.914062 C 13.988281 3.894531 13.972656 3.878906 13.957031 3.859375 C 13.890625 3.792969 13.828125 3.726562 13.757812 3.664062 C 13.742188 3.652344 13.730469 3.640625 13.714844 3.628906 C 13.460938 3.40625 13.171875 3.230469 12.851562 3.105469 C 12.835938 3.101562 12.816406 3.09375 12.800781 3.089844 C 12.714844 3.054688 12.625 3.027344 12.535156 3.003906 C 12.511719 3 12.488281 2.992188 12.464844 2.988281 C 12.378906 2.964844 12.292969 2.949219 12.203125 2.9375 C 12.179688 2.933594 12.152344 2.929688 12.125 2.925781 C 12.015625 2.914062 11.902344 2.90625 11.789062 2.90625 C 11.675781 2.90625 11.5625 2.914062 11.453125 2.925781 C 11.425781 2.929688 11.398438 2.933594 11.375 2.9375 C 11.285156 2.949219 11.199219 2.964844 11.113281 2.988281 C 11.089844 2.992188 11.066406 3 11.042969 3.003906 C 10.949219 3.027344 10.863281 3.054688 10.773438 3.089844 C 10.757812 3.09375 10.742188 3.101562 10.726562 3.105469 C 10.40625 3.230469 10.117188 3.40625 9.859375 3.628906 C 9.847656 3.640625 9.832031 3.652344 9.820312 3.664062 C 9.75 3.726562 9.683594 3.792969 9.621094 3.859375 C 9.605469 3.878906 9.589844 3.894531 9.574219 3.914062 C 9.507812 3.988281 9.445312 4.066406 9.386719 4.148438 C 9.382812 4.15625 9.378906 4.160156 9.371094 4.167969 L 8 4.167969 Z M 4.632812 5.011719 L 8.964844 5.011719 C 8.886719 5.277344 8.84375 5.558594 8.84375 5.851562 C 8.84375 5.996094 8.855469 6.136719 8.875 6.273438 L 2.972656 6.273438 C 3.652344 5.589844 4.402344 5.011719 4.632812 5.011719 Z M 1.261719 10.90625 C 1.03125 10.90625 0.84375 10.714844 0.84375 10.484375 C 0.84375 10.25 1.03125 10.0625 1.261719 10.0625 L 2.527344 10.0625 L 2.527344 10.90625 Z M 20.632812 20.167969 C 20.632812 21.144531 19.84375 21.9375 18.875 21.9375 L 5.125 21.9375 C 4.460938 21.9375 3.886719 21.558594 3.589844 21.011719 L 7.15625 21.011719 C 7.390625 21.011719 7.578125 20.820312 7.578125 20.589844 C 7.578125 20.355469 7.390625 20.167969 7.15625 20.167969 L 3.367188 20.167969 L 3.367188 19.328125 L 5.894531 19.328125 C 6.128906 19.328125 6.316406 19.136719 6.316406 18.90625 C 6.316406 18.671875 6.128906 18.484375 5.894531 18.484375 L 3.367188 18.484375 L 3.367188 17.640625 L 5.050781 17.640625 C 5.285156 17.640625 5.472656 17.453125 5.472656 17.222656 C 5.472656 16.988281 5.285156 16.800781 5.050781 16.800781 L 3.367188 16.800781 L 3.367188 9.222656 L 3.359375 9.222656 C 3.335938 8.828125 3.222656 8.441406 3.019531 8.101562 L 2.433594 7.117188 L 9.128906 7.117188 C 9.132812 7.121094 9.136719 7.128906 9.140625 7.136719 C 9.253906 7.371094 9.402344 7.589844 9.574219 7.789062 C 9.585938 7.804688 9.601562 7.816406 9.613281 7.832031 C 9.695312 7.921875 9.777344 8.003906 9.871094 8.082031 C 9.875 8.089844 9.882812 8.09375 9.886719 8.097656 C 9.984375 8.183594 10.089844 8.257812 10.199219 8.328125 C 10.210938 8.335938 10.226562 8.34375 10.238281 8.351562 C 10.335938 8.414062 10.441406 8.472656 10.546875 8.519531 C 10.5625 8.527344 10.574219 8.535156 10.589844 8.539062 C 10.707031 8.59375 10.828125 8.636719 10.953125 8.675781 C 10.964844 8.679688 10.976562 8.679688 10.984375 8.683594 C 11.09375 8.714844 11.203125 8.738281 11.316406 8.757812 C 11.347656 8.761719 11.378906 8.765625 11.40625 8.769531 C 11.535156 8.789062 11.660156 8.800781 11.789062 8.800781 C 11.917969 8.800781 12.046875 8.789062 12.171875 8.769531 C 12.203125 8.765625 12.230469 8.761719 12.261719 8.757812 C 12.375 8.738281 12.484375 8.714844 12.59375 8.683594 C 12.605469 8.679688 12.617188 8.679688 12.628906 8.675781 C 12.753906 8.636719 12.875 8.59375 12.992188 8.539062 C 13.003906 8.535156 13.019531 8.527344 13.03125 8.519531 C 13.136719 8.472656 13.242188 8.414062 13.339844 8.351562 C 13.351562 8.34375 13.367188 8.335938 13.378906 8.328125 C 13.488281 8.257812 13.59375 8.183594 13.691406 8.097656 C 13.699219 8.09375 13.703125 8.089844 13.710938 8.082031 C 13.800781 8.003906 13.886719 7.921875 13.964844 7.832031 C 13.980469 7.816406 13.992188 7.804688 14.007812 7.789062 C 14.179688 7.589844 14.324219 7.371094 14.4375 7.136719 C 14.441406 7.128906 14.445312 7.121094 14.449219 7.117188 L 21.566406 7.117188 L 20.980469 8.101562 C 20.777344 8.441406 20.664062 8.828125 20.640625 9.222656 L 20.632812 9.222656 Z M 22.738281 10.90625 L 21.472656 10.90625 L 21.472656 10.0625 L 22.738281 10.0625 C 22.96875 10.0625 23.160156 10.25 23.160156 10.484375 C 23.160156 10.714844 22.96875 10.90625 22.738281 10.90625 Z M 22.738281 10.90625"/>
    <path d="M 11.492188 5.554688 L 12.753906 4.292969 L 13.351562 4.886719 L 12.085938 6.152344 Z M 11.492188 5.554688"/>
</svg>

<svg xmlns="http://www.w3.org/2000/svg" width="32" height="32" viewBox="0 0 24 24">
    <path d="M22.738 9.223h-1.254c.02-.246.094-.48.22-.692l.687-1.148a.743.743 0 0 0 .007-.738.717.717 0 0 0-.382-.32.696.696 0 0 0-.098-.325l-.055-.074c-.492-.528-1.726-1.758-2.496-1.758h-2.945v-.422a2.531 2.531 0 0 0-2.527-2.527H9.684a2.534 2.534 0 0 0-2.528 2.527v.422H4.633c-.77 0-2.004 1.23-2.496 1.758L2.082 6a.745.745 0 0 0-.098.324.732.732 0 0 0-.382.32.734.734 0 0 0 .011.739l.684 1.148c.125.211.2.446.219.692H1.262C.566 9.223 0 9.789 0 10.484c0 .696.566 1.262 1.262 1.262h1.265v8.422c0 .11.008.215.02.316-.008.036-.02.07-.02.106 0 .094.035.176.09.246a2.6 2.6 0 0 0 2.508 1.945h13.75a2.607 2.607 0 0 0 2.598-2.613v-8.422h1.265c.696 0 1.262-.566 1.262-1.262 0-.695-.566-1.261-1.262-1.261zm-3.37-4.211c.237 0 .976.57 1.66 1.261h-6.325c.02-.136.035-.277.035-.421a2.97 2.97 0 0 0-.125-.84zM13.68 6.766a3.947 3.947 0 0 1-.098.175 1.648 1.648 0 0 1-.238.316.698.698 0 0 1-.086.098 1.856 1.856 0 0 1-.27.223c-.035.024-.074.043-.11.067-.07.043-.14.082-.214.117-.043.02-.086.035-.133.054-.074.028-.152.051-.234.07-.043.012-.082.024-.125.032-.125.023-.25.039-.383.039a2.01 2.01 0 0 1-.379-.039c-.043-.008-.086-.02-.129-.027a5.41 5.41 0 0 1-.234-.075 1.905 1.905 0 0 1-.348-.171c-.035-.02-.074-.04-.105-.063a2.553 2.553 0 0 1-.27-.223c-.031-.03-.058-.066-.09-.097-.05-.059-.101-.117-.148-.18a2.717 2.717 0 0 1-.086-.14 2.93 2.93 0 0 1-.172-.336 2.12 2.12 0 0 1-.144-.754c0-.41.125-.793.332-1.122.02-.035.043-.066.066-.101a3.39 3.39 0 0 1 .188-.227c.02-.02.039-.043.062-.062.074-.07.152-.137.234-.195l.106-.07c.078-.048.16-.095.242-.134l.082-.035a2.184 2.184 0 0 1 .793-.16c.129 0 .25.016.371.04.035.003.07.01.106.019a2.184 2.184 0 0 1 .402.136 2.336 2.336 0 0 1 .582.399l.063.062c.066.07.128.149.183.227.027.035.047.066.07.101.204.329.329.711.329 1.122 0 .265-.055.515-.145.75-.02.058-.047.109-.07.164zM8 3.746c0-.93.754-1.683 1.684-1.683h4.21c.93 0 1.684.753 1.684 1.683v.422h-1.371a2.737 2.737 0 0 0-.203-.254l-.047-.055c-.066-.066-.129-.132-.2-.195l-.042-.035a2.903 2.903 0 0 0-.863-.524c-.016-.003-.036-.011-.051-.015a2.106 2.106 0 0 0-.266-.086c-.023-.004-.047-.012-.07-.016a1.937 1.937 0 0 0-.262-.05l-.078-.012a3.167 3.167 0 0 0-.336-.02c-.113 0-.226.008-.336.02l-.078.011c-.09.012-.176.028-.262.051-.023.004-.047.012-.07.016-.094.023-.18.05-.27.086-.015.004-.03.012-.046.015-.32.125-.61.301-.868.524-.011.012-.027.023-.039.035-.07.063-.136.129-.199.195l-.047.055a2.736 2.736 0 0 0-.187.234c-.004.008-.008.012-.016.02H8zM4.633 5.012h4.332a2.97 2.97 0 0 0-.09 1.261H2.973c.68-.683 1.43-1.261 1.66-1.261zm-3.371 5.894a.422.422 0 0 1 0-.844h1.265v.844zm19.37 9.262c0 .977-.788 1.77-1.757 1.77H5.125a1.751 1.751 0 0 1-1.535-.926h3.566a.423.423 0 0 0 0-.844H3.367v-.84h2.528a.423.423 0 0 0 0-.844H3.367v-.843h1.684a.42.42 0 1 0 0-.84H3.367V9.223H3.36a2.47 2.47 0 0 0-.34-1.121l-.585-.985h6.695a3.009 3.009 0 0 0 .445.672c.012.016.028.027.04.043.081.09.163.172.257.25.004.008.012.012.016.016.097.086.203.16.312.23l.04.024c.097.062.202.12.308.168.015.007.027.015.043.02.117.054.238.097.363.136.012.004.024.004.031.008.11.03.22.054.332.074l.09.012a2.49 2.49 0 0 0 .766 0l.09-.012c.113-.02.222-.043.332-.074.011-.004.023-.004.035-.008a2.893 2.893 0 0 0 .71-.324l.04-.024c.11-.07.215-.144.312-.23a2.557 2.557 0 0 0 .273-.266l.044-.043a2.992 2.992 0 0 0 .441-.672h7.117l-.586.985a2.47 2.47 0 0 0-.34 1.12h-.007zm2.106-9.262h-1.265v-.844h1.265a.423.423 0 0 1 0 .844zm0 0"/>
    <path d="M11.492 5.555l1.262-1.262.598.594-1.266 1.265zm0 0"/>
</svg>
